src/assets/img/icons/mask/icon-partner-neo.svg

<svg width="138" height="53" viewBox="0 0 138 53" fill="none" xmlns="http://www.w3.org/2000/svg">
<path d="M74.9951 16.6949C76.8501 18.329 77.7776 20.7582 77.7776 23.894V40.1915H73.7143V25.3074C73.7143 22.6573 73.1401 20.714 71.9918 19.5215C70.8434 18.329 69.3417 17.7549 67.4426 17.7549C66.1113 17.7529 64.797 18.0551 63.6001 18.6382C62.3619 19.3007 61.3477 20.315 60.6851 21.5532C59.8901 22.8782 59.5368 24.6007 59.5368 26.6324V40.1915H55.4293V15.4582L59.1835 17.0041L59.2718 18.6824C60.0491 17.1953 61.2894 16.0016 62.8051 15.2816C64.3718 14.5182 66.0978 14.1397 67.8401 14.1774C70.7256 14.1774 73.1107 15.0165 74.9951 16.6949Z" fill="#4D4D5D"/>
<path d="M74.9951 16.6949C76.8501 18.329 77.7776 20.7582 77.7776 23.894V40.1915H73.7143V25.3074C73.7143 22.6573 73.1401 20.714 71.9918 19.5215C70.8434 18.329 69.3417 17.7549 67.4426 17.7549C66.1113 17.7529 64.797 18.0551 63.6001 18.6382C62.3619 19.3007 61.3477 20.315 60.6851 21.5532C59.8901 22.8782 59.5368 24.6007 59.5368 26.6324V40.1915H55.4293V15.4582L59.1835 17.0041L59.2718 18.6824C60.0491 17.1953 61.2894 16.0016 62.8051 15.2816C64.3718 14.5182 66.0978 14.1397 67.8401 14.1774C70.7256 14.1774 73.1107 15.0165 74.9951 16.6949Z" fill="url(#paint0_linear)" fill-opacity="0.4"/>
<path d="M106.795 28.9733H87.5822C87.803 31.5792 88.6864 33.5666 90.1439 34.98C91.6014 36.3933 93.5448 37.1442 95.8856 37.1442C97.5005 37.189 99.1036 36.8563 100.568 36.1725C101.739 35.5898 102.641 34.5772 103.085 33.3458L106.485 35.1567C105.56 36.8918 104.147 38.3192 102.422 39.2642C100.744 40.2358 98.5355 40.7217 95.8856 40.7217C92.0431 40.7217 89.0398 39.5292 86.8314 37.1884C84.6231 34.8474 83.5631 31.5792 83.5631 27.4275C83.5631 23.2758 84.5789 20.0516 86.699 17.7108C88.8189 15.37 91.7339 14.1775 95.5764 14.1775C97.7456 14.1196 99.8881 14.6703 101.76 15.7674C103.458 16.7841 104.823 18.2725 105.69 20.0516C106.591 21.9404 107.043 24.0107 107.015 26.1025C107.008 27.0633 106.934 28.0226 106.795 28.9733ZM90.1439 19.7425C88.7748 21.0675 87.9356 22.9225 87.6264 25.3517H103.085C102.819 22.9667 102.024 21.1116 100.744 19.7867C99.4631 18.4617 97.7406 17.755 95.5764 17.755C93.4122 17.755 91.5131 18.4175 90.1439 19.7425Z" fill="#4D4D5D"/>
<path d="M106.795 28.9733H87.5822C87.803 31.5792 88.6864 33.5666 90.1439 34.98C91.6014 36.3933 93.5448 37.1442 95.8856 37.1442C97.5005 37.189 99.1036 36.8563 100.568 36.1725C101.739 35.5898 102.641 34.5772 103.085 33.3458L106.485 35.1567C105.56 36.8918 104.147 38.3192 102.422 39.2642C100.744 40.2358 98.5355 40.7217 95.8856 40.7217C92.0431 40.7217 89.0398 39.5292 86.8314 37.1884C84.6231 34.8474 83.5631 31.5792 83.5631 27.4275C83.5631 23.2758 84.5789 20.0516 86.699 17.7108C88.8189 15.37 91.7339 14.1775 95.5764 14.1775C97.7456 14.1196 99.8881 14.6703 101.76 15.7674C103.458 16.7841 104.823 18.2725 105.69 20.0516C106.591 21.9404 107.043 24.0107 107.015 26.1025C107.008 27.0633 106.934 28.0226 106.795 28.9733ZM90.1439 19.7425C88.7748 21.0675 87.9356 22.9225 87.6264 25.3517H103.085C102.819 22.9667 102.024 21.1116 100.744 19.7867C99.4631 18.4617 97.7406 17.755 95.5764 17.755C93.4122 17.755 91.5131 18.4175 90.1439 19.7425Z" fill="url(#paint1_linear)" fill-opacity="0.4"/>
<path d="M134.002 17.711C136.21 20.0518 137.314 23.276 137.314 27.4276C137.314 31.5793 136.21 34.8477 134.002 37.1885C131.794 39.5293 128.79 40.7218 124.948 40.7218C121.105 40.7218 118.102 39.5293 115.893 37.1885C113.685 34.8477 112.625 31.5793 112.625 27.4276C112.625 23.276 113.729 20.0518 115.893 17.711C118.057 15.3702 121.105 14.1776 124.948 14.1776C128.79 14.1776 131.838 15.3702 134.002 17.711ZM118.896 20.3169C117.439 22.0393 116.688 24.4243 116.688 27.4276C116.688 30.431 117.439 32.8601 118.896 34.5827C120.354 36.3052 122.386 37.1885 124.948 37.1885C127.509 37.1885 129.585 36.3052 131.043 34.5827C132.5 32.8601 133.207 30.4751 133.207 27.4276C133.207 24.3802 132.5 22.0393 131.043 20.3169C129.585 18.5944 127.553 17.711 124.948 17.711C122.342 17.711 120.354 18.5502 118.896 20.3169Z" fill="#4D4D5D"/>
<path d="M134.002 17.711C136.21 20.0518 137.314 23.276 137.314 27.4276C137.314 31.5793 136.21 34.8477 134.002 37.1885C131.794 39.5293 128.79 40.7218 124.948 40.7218C121.105 40.7218 118.102 39.5293 115.893 37.1885C113.685 34.8477 112.625 31.5793 112.625 27.4276C112.625 23.276 113.729 20.0518 115.893 17.711C118.057 15.3702 121.105 14.1776 124.948 14.1776C128.79 14.1776 131.838 15.3702 134.002 17.711ZM118.896 20.3169C117.439 22.0393 116.688 24.4243 116.688 27.4276C116.688 30.431 117.439 32.8601 118.896 34.5827C120.354 36.3052 122.386 37.1885 124.948 37.1885C127.509 37.1885 129.585 36.3052 131.043 34.5827C132.5 32.8601 133.207 30.4751 133.207 27.4276C133.207 24.3802 132.5 22.0393 131.043 20.3169C129.585 18.5944 127.553 17.711 124.948 17.711C122.342 17.711 120.354 18.5502 118.896 20.3169Z" fill="url(#paint2_linear)" fill-opacity="0.4"/>
<path d="M0 9.27501V44.7408L23.0551 53V17.225L47.9209 8.0825L25.3517 0L0 9.27501Z" fill="#4D4D5D"/>
<path d="M0 9.27501V44.7408L23.0551 53V17.225L47.9209 8.0825L25.3517 0L0 9.27501Z" fill="url(#paint3_linear)" fill-opacity="0.4"/>
<path d="M24.9098 18.5503V37.6744L47.9206 45.8894V10.0261L24.9098 18.5503Z" fill="#4D4D5D"/>
<path d="M24.9098 18.5503V37.6744L47.9206 45.8894V10.0261L24.9098 18.5503Z" fill="url(#paint4_linear)" fill-opacity="0.4"/>
<defs>
<linearGradient id="paint0_linear" x1="66.6035" y1="14.1748" x2="66.6035" y2="40.1915" gradientUnits="userSpaceOnUse">
<stop stop-color="white"/>
<stop offset="1" stop-color="white" stop-opacity="0"/>
</linearGradient>
<linearGradient id="paint1_linear" x1="95.2899" y1="14.1733" x2="95.2899" y2="40.7217" gradientUnits="userSpaceOnUse">
<stop stop-color="white"/>
<stop offset="1" stop-color="white" stop-opacity="0"/>
</linearGradient>
<linearGradient id="paint2_linear" x1="124.97" y1="14.1776" x2="124.97" y2="40.7218" gradientUnits="userSpaceOnUse">
<stop stop-color="white"/>
<stop offset="1" stop-color="white" stop-opacity="0"/>
</linearGradient>
<linearGradient id="paint3_linear" x1="23.9604" y1="0" x2="23.9604" y2="53" gradientUnits="userSpaceOnUse">
<stop stop-color="white"/>
<stop offset="1" stop-color="white" stop-opacity="0"/>
</linearGradient>
<linearGradient id="paint4_linear" x1="36.4152" y1="10.0261" x2="36.4152" y2="45.8894" gradientUnits="userSpaceOnUse">
<stop stop-color="white"/>
<stop offset="1" stop-color="white" stop-opacity="0"/>
</linearGradient>
</defs>
</svg>

<svg xmlns="http://www.w3.org/2000/svg" width="138" height="53" fill="none"><path fill="#4D4D5D" d="M75 16.7c1.85 1.63 2.78 4.06 2.78 7.2v16.3H73.7V25.3c0-2.64-.57-4.59-1.72-5.78a5.99 5.99 0 00-4.55-1.77c-1.33 0-2.64.3-3.84.89a7.11 7.11 0 00-2.91 2.91c-.8 1.33-1.15 3.05-1.15 5.08V40.2h-4.11V15.46L59.18 17l.1 1.68a7.73 7.73 0 013.53-3.4c1.56-.76 3.29-1.14 5.03-1.1 2.89 0 5.27.84 7.16 2.51z"/><path fill="url(#paint0_linear)" fill-opacity=".4" d="M75 16.7c1.85 1.63 2.78 4.06 2.78 7.2v16.3H73.7V25.3c0-2.64-.57-4.59-1.72-5.78a5.99 5.99 0 00-4.55-1.77c-1.33 0-2.64.3-3.84.89a7.11 7.11 0 00-2.91 2.91c-.8 1.33-1.15 3.05-1.15 5.08V40.2h-4.11V15.46L59.18 17l.1 1.68a7.73 7.73 0 013.53-3.4c1.56-.76 3.29-1.14 5.03-1.1 2.89 0 5.27.84 7.16 2.51z"/><path fill="#4D4D5D" d="M106.8 28.97H87.58c.22 2.6 1.1 4.6 2.56 6.01a7.98 7.98 0 005.75 2.16c1.61.05 3.21-.28 4.68-.97a5.08 5.08 0 002.52-2.82l3.4 1.8a10.1 10.1 0 01-4.07 4.11c-1.68.98-3.88 1.46-6.53 1.46-3.85 0-6.85-1.2-9.06-3.53-2.2-2.34-3.27-5.61-3.27-9.76 0-4.15 1.02-7.38 3.14-9.72 2.12-2.34 5.03-3.53 8.88-3.53 2.17-.06 4.3.49 6.18 1.59a10.2 10.2 0 013.93 4.28c.9 1.89 1.35 3.96 1.33 6.05-.01.96-.09 1.92-.22 2.87zm-16.66-9.23c-1.37 1.33-2.2 3.18-2.51 5.61h15.45c-.26-2.38-1.06-4.24-2.34-5.56a6.88 6.88 0 00-5.16-2.04c-2.17 0-4.07.67-5.44 2z"/><path fill="url(#paint1_linear)" fill-opacity=".4" d="M106.8 28.97H87.58c.22 2.6 1.1 4.6 2.56 6.01a7.98 7.98 0 005.75 2.16c1.61.05 3.21-.28 4.68-.97a5.08 5.08 0 002.52-2.82l3.4 1.8a10.1 10.1 0 01-4.07 4.11c-1.68.98-3.88 1.46-6.53 1.46-3.85 0-6.85-1.2-9.06-3.53-2.2-2.34-3.27-5.61-3.27-9.76 0-4.15 1.02-7.38 3.14-9.72 2.12-2.34 5.03-3.53 8.88-3.53 2.17-.06 4.3.49 6.18 1.59a10.2 10.2 0 013.93 4.28c.9 1.89 1.35 3.96 1.33 6.05-.01.96-.09 1.92-.22 2.87zm-16.66-9.23c-1.37 1.33-2.2 3.18-2.51 5.61h15.45c-.26-2.38-1.06-4.24-2.34-5.56a6.88 6.88 0 00-5.16-2.04c-2.17 0-4.07.67-5.44 2z"/><path fill="#4D4D5D" d="M134 17.71c2.21 2.34 3.31 5.57 3.31 9.72s-1.1 7.42-3.3 9.76c-2.22 2.34-5.22 3.53-9.06 3.53-3.84 0-6.85-1.2-9.06-3.53-2.2-2.34-3.27-5.61-3.27-9.76 0-4.15 1.1-7.38 3.27-9.72 2.17-2.34 5.22-3.53 9.06-3.53 3.84 0 6.89 1.19 9.05 3.53zm-15.1 2.6c-1.46 1.73-2.21 4.11-2.21 7.12 0 3 .75 5.43 2.2 7.15 1.46 1.73 3.5 2.6 6.06 2.6 2.56 0 4.64-.87 6.1-2.6 1.45-1.72 2.16-4.1 2.16-7.15 0-3.05-.71-5.4-2.17-7.11-1.45-1.73-3.49-2.6-6.1-2.6-2.6 0-4.59.83-6.04 2.6z"/><path fill="url(#paint2_linear)" fill-opacity=".4" d="M134 17.71c2.21 2.34 3.31 5.57 3.31 9.72s-1.1 7.42-3.3 9.76c-2.22 2.34-5.22 3.53-9.06 3.53-3.84 0-6.85-1.2-9.06-3.53-2.2-2.34-3.27-5.61-3.27-9.76 0-4.15 1.1-7.38 3.27-9.72 2.17-2.34 5.22-3.53 9.06-3.53 3.84 0 6.89 1.19 9.05 3.53zm-15.1 2.6c-1.46 1.73-2.21 4.11-2.21 7.12 0 3 .75 5.43 2.2 7.15 1.46 1.73 3.5 2.6 6.06 2.6 2.56 0 4.64-.87 6.1-2.6 1.45-1.72 2.16-4.1 2.16-7.15 0-3.05-.71-5.4-2.17-7.11-1.45-1.73-3.49-2.6-6.1-2.6-2.6 0-4.59.83-6.04 2.6z"/><path fill="#4D4D5D" d="M0 9.28v35.46L23.06 53V17.23l24.86-9.15L25.35 0 0 9.28z"/><path fill="url(#paint3_linear)" fill-opacity=".4" d="M0 9.28v35.46L23.06 53V17.23l24.86-9.15L25.35 0 0 9.28z"/><path fill="#4D4D5D" d="M24.91 18.55v19.12l23.01 8.22V10.03l-23.01 8.52z"/><path fill="url(#paint4_linear)" fill-opacity=".4" d="M24.91 18.55v19.12l23.01 8.22V10.03l-23.01 8.52z"/><defs><linearGradient id="paint0_linear" x1="66.603" x2="66.603" y1="14.175" y2="40.191" gradientUnits="userSpaceOnUse"><stop stop-color="#fff"/><stop offset="1" stop-color="#fff" stop-opacity="0"/></linearGradient><linearGradient id="paint1_linear" x1="95.29" x2="95.29" y1="14.173" y2="40.722" gradientUnits="userSpaceOnUse"><stop stop-color="#fff"/><stop offset="1" stop-color="#fff" stop-opacity="0"/></linearGradient><linearGradient id="paint2_linear" x1="124.97" x2="124.97" y1="14.178" y2="40.722" gradientUnits="userSpaceOnUse"><stop stop-color="#fff"/><stop offset="1" stop-color="#fff" stop-opacity="0"/></linearGradient><linearGradient id="paint3_linear" x1="23.96" x2="23.96" y1="0" y2="53" gradientUnits="userSpaceOnUse"><stop stop-color="#fff"/><stop offset="1" stop-color="#fff" stop-opacity="0"/></linearGradient><linearGradient id="paint4_linear" x1="36.415" x2="36.415" y1="10.026" y2="45.889" gradientUnits="userSpaceOnUse"><stop stop-color="#fff"/><stop offset="1" stop-color="#fff" stop-opacity="0"/></linearGradient></defs></svg>
